Yaru++/actions/16/text_word_spacing.svg

<svg viewBox="0 0 24 24" xmlns="http://www.w3.org/2000/svg"><path d="m4 12v8h1v-8zm2 0v8h1v-7h1a2 2 0 0 1 2 2v5h1v-5a3 3 0 0 0 -3-3h-1zm8 0v8h1v-8zm2 0v4 4h1v-4a3 2.9999979 0 0 1 3-3v-1a3.9999852 4 0 0 0 -3 1.361328v-1.361328z" fill="#808080"/><path d="m11 4-4 3 4 3zm3 0v6l4-3z" fill="#1d99f3"/></svg>

<svg xmlns="http://www.w3.org/2000/svg" viewBox="0 0 24 24">
 <defs>
  <style id="current-color-scheme" type="text/css">
   .ColorScheme-Text { color:#808080; } .ColorScheme-Highlight { color:#1d99f3; }
  </style>
 </defs>
 <path style="fill:currentColor" class="ColorScheme-Text" d="M 4 12 L 4 20 L 5 20 L 5 12 L 4 12 z M 6 12 L 6 20 L 7 20 L 7 13 L 8 13 A 2 2 0 0 1 10 15 L 10 20 L 11 20 L 11 15 A 3 3 0 0 0 8 12 L 7 12 L 6 12 z M 14 12 L 14 20 L 15 20 L 15 12 L 14 12 z M 16 12 L 16 16 L 16 20 L 17 20 L 17 16 A 3 2.9999979 0 0 1 20 13 L 20 12 A 3.9999852 4 0 0 0 17 13.361328 L 17 12 L 16 12 z"/>
 <path style="fill:currentColor" class="ColorScheme-Highlight" d="M 11 4 L 7 7 L 11 10 L 11 4 z M 14 4 L 14 10 L 18 7 L 14 4 z"/>
</svg>
